X:1
T:Title
%%score { 1 | ( 2 3 ) }
L:1/8
M:2/4
K:Ab
V:1 treble nm="Grand Piano"
V:2 bass 
V:3 bass 
V:1
 z2 z[Q:1/4=100] [CA] | [Ec][Ec] [Fd][Ec] | c B2 A | AG FG | [CA]3 [CA] | BB AB | %6
 [Ec] [CA]2 [CEA] | [B,EG][EB] [=DA][DF] | E3 E | Bd cB | [Ec] [CA]2 B | ce dc | B3 c/d/ | ec BA | %14
 [FA] [Fd]2 F | Ec c>B |[M:3/8] [CA]3 |[M:1/8] [CA] |[M:2/4] [DF][Fd] [Fd]>[Fd] | [Fd]3 [DF] | %20
 [CE][Ec] [Ec]>[Ec] | [Ec]3 c/d/ | ec BA | [FA] [Fd]2 F | Ec c>B |[M:3/8] [CA]3 |] %26
V:2
 z2 z [A,,E,] | [A,,A,][A,,A,] [A,,A,][A,,A,] | [E,A,E] [E,G,E]2 [E,CE] | %3
 [E,B,D][E,B,D] [E,B,D][E,B,D] | [A,,A,]3 [A,,A,] | [E,G,E][E,G,E] [E,F,E][E,G,E] | %6
 [A,,A,] [A,,A,]2 A,, | B,,[B,,G,] [B,,F,][B,,A,] | [E,G,]3 [E,G,] | %9
 [E,G,E][E,B,E] [E,A,E][E,G,E] | [A,,A,] [A,,A,]2 [E,G,E] | [A,E][A,CE] [G,B,E][A,E] | z2 z [A,E] | %13
 [A,CA][A,EA] [A,D_G][A,CG] | [D,D] [D,A,]2 [D,A,D] | [E,A,C][E,A,E] [E,A,E]>[E,G,D] | %16
[M:3/8] [A,,A,]3 |[M:1/8] [A,,A,] |[M:2/4] [D,A,][D,A,] [D,A,]>[D,A,] | [D,A,]3 [D,A,] | %20
 [A,,A,][A,,A,] [A,,A,]>[A,,A,] | z2 z [A,E] | [A,CA][A,EA] [B,D_G][A,CG] | [D,D] [D,A,]2 [D,A,D] | %24
 [E,A,C][E,A,E] [E,A,E]>[E,G,D] |[M:3/8] [A,,A,]3 |] %26
V:3
 x4 | x4 | x4 | x4 | x4 | x4 | x4 | x4 | x4 | x4 | x4 | x4 | [E,G,E]3 z/ B,/ | x4 | x4 | x4 | %16
[M:3/8] x3 |[M:1/8] x |[M:2/4] x4 | x4 | x4 | [A,,A,]3 z/ B,/ | x4 | x4 | x4 |[M:3/8] x3 |] %26

